test-site/images/icons/twitter.svg

<?xml version="1.0" encoding="utf-8"?>
<!-- Generator: Adobe Illustrator 22.0.1, SVG Export Plug-In . SVG Version: 6.00 Build 0)  -->
<svg version="1.1"
	 id="svg3626" xmlns:cc="http://creativecommons.org/ns#" xmlns:dc="http://purl.org/dc/elements/1.1/" xmlns:rdf="http://www.w3.org/1999/02/22-rdf-syntax-ns#" xmlns:svg="http://www.w3.org/2000/svg"
	 xmlns="http://www.w3.org/2000/svg" xmlns:xlink="http://www.w3.org/1999/xlink" x="0px" y="0px" viewBox="0 0 300 300"
	 style="enable-background:new 0 0 300 300;" xml:space="preserve">
<style type="text/css">
	.st0{fill:#00001A;}
</style>
<g id="layer1" transform="translate(-539.17946,-568.85777)">
	<path id="path3611" class="st0" d="M633.9,840c112.5,0,174-93.2,174-174c0-2.6-0.1-5.3-0.2-7.9c11.9-8.6,22.3-19.4,30.5-31.7
		c-11,4.9-22.7,8.1-35.1,9.6c12.6-7.6,22.3-19.5,26.9-33.8c-11.8,7-24.9,12.1-38.8,14.8c-11.2-11.9-27-19.3-44.6-19.3
		c-33.8,0-61.1,27.4-61.1,61.1c0,4.8,0.5,9.5,1.6,13.9c-50.8-2.6-95.9-26.9-126-63.9c-5.3,9-8.3,19.5-8.3,30.7
		c0,21.2,10.8,39.9,27.2,50.9c-10-0.3-19.5-3.1-27.7-7.6c0,0.3,0,0.5,0,0.8c0,29.6,21.1,54.3,49.1,59.9c-5.1,1.4-10.5,2.2-16.1,2.2
		c-3.9,0-7.8-0.4-11.5-1.1c7.8,24.3,30.4,42,57.1,42.5c-20.9,16.4-47.3,26.2-75.9,26.2c-4.9,0-9.8-0.3-14.6-0.8
		C567.2,829.8,599.4,840,633.9,840"/>
</g>
</svg>

<?xml version="1.0" encoding="UTF-8" standalone="no"?>
<!DOCTYPE svg PUBLIC "-//W3C//DTD SVG 1.1//EN" "http://www.w3.org/Graphics/SVG/1.1/DTD/svg11.dtd">
<svg width="100%" height="100%" viewBox="0 0 300 300" version="1.1" xmlns="http://www.w3.org/2000/svg" xmlns:xlink="http://www.w3.org/1999/xlink" xml:space="preserve" xmlns:serif="http://www.serif.com/" style="fill-rule:evenodd;clip-rule:evenodd;stroke-linejoin:round;stroke-miterlimit:1.41421;">
    <g id="path3611" transform="matrix(1,0,0,1,-539.179,-568.858)">
        <path d="M633.9,840C746.4,840 807.9,746.8 807.9,666C807.9,663.4 807.8,660.7 807.7,658.1C819.6,649.5 830,638.7 838.2,626.4C827.2,631.3 815.5,634.5 803.1,636C815.7,628.4 825.4,616.5 830,602.2C818.2,609.2 805.1,614.3 791.2,617C780,605.1 764.2,597.7 746.6,597.7C712.8,597.7 685.5,625.1 685.5,658.8C685.5,663.6 686,668.3 687.1,672.7C636.3,670.1 591.2,645.8 561.1,608.8C555.8,617.8 552.8,628.3 552.8,639.5C552.8,660.7 563.6,679.4 580,690.4C570,690.1 560.5,687.3 552.3,682.8C552.3,683.1 552.3,683.3 552.3,683.6C552.3,713.2 573.4,737.9 601.4,743.5C596.3,744.9 590.9,745.7 585.3,745.7C581.4,745.7 577.5,745.3 573.8,744.6C581.6,768.9 604.2,786.6 630.9,787.1C610,803.5 583.6,813.3 555,813.3C550.1,813.3 545.2,813 540.4,812.5C567.2,829.8 599.4,840 633.9,840" style="fill:rgb(36,133,214);fill-rule:nonzero;"/>
    </g>
</svg>
